Numix/16/status/indicator-keyboard-Ph-4.svg

<?xml version="1.0" encoding="UTF-8" standalone="no"?>
<svg
   xmlns:dc="http://purl.org/dc/elements/1.1/"
   xmlns:cc="http://creativecommons.org/ns#"
   xmlns:rdf="http://www.w3.org/1999/02/22-rdf-syntax-ns#"
   xmlns:svg="http://www.w3.org/2000/svg"
   xmlns="http://www.w3.org/2000/svg"
   xmlns:sodipodi="http://sodipodi.sourceforge.net/DTD/sodipodi-0.dtd"
   xmlns:inkscape="http://www.inkscape.org/namespaces/inkscape"
   viewBox="0 0 16 16"
   id="svg2"
   version="1.1"
   inkscape:version="0.91 r13725"
   sodipodi:docname="indicator-keyboard-Ph-4.svg">
  <metadata
     id="metadata14">
    <rdf:RDF>
      <cc:Work
         rdf:about="">
        <dc:format>image/svg+xml</dc:format>
        <dc:type
           rdf:resource="http://purl.org/dc/dcmitype/StillImage" />
      </cc:Work>
    </rdf:RDF>
  </metadata>
  <defs
     id="defs12" />
  <sodipodi:namedview
     pagecolor="#ffffff"
     bordercolor="#666666"
     borderopacity="1"
     objecttolerance="10"
     gridtolerance="10"
     guidetolerance="10"
     inkscape:pageopacity="0"
     inkscape:pageshadow="2"
     inkscape:window-width="640"
     inkscape:window-height="480"
     id="namedview10"
     showgrid="false"
     inkscape:zoom="14.75"
     inkscape:cx="8"
     inkscape:cy="8"
     inkscape:window-x="65"
     inkscape:window-y="24"
     inkscape:window-maximized="0"
     inkscape:current-layer="svg2" />
  <path
     style="fill:#ececec;fill-opacity:1"
     d="M 1.5996094 0 C 0.71320937 2.9605947e-16 0 0.71320937 0 1.5996094 L 0 14.400391 C 2.9605947e-16 15.286791 0.71320937 16 1.5996094 16 L 14.400391 16 C 15.286791 16 16 15.286791 16 14.400391 L 16 1.5996094 C 16 0.71320937 15.286791 0 14.400391 0 L 1.5996094 0 z M 7.5566406 4.1113281 L 7.5566406 6.578125 C 7.7486406 6.506125 7.942625 6.4520156 8.140625 6.4160156 C 8.338625 6.3740156 8.536375 6.3535156 8.734375 6.3535156 C 9.094375 6.3535156 9.3947656 6.4038594 9.6347656 6.5058594 C 9.8747656 6.6078594 10.066937 6.7552656 10.210938 6.9472656 C 10.354938 7.1332656 10.453813 7.3570938 10.507812 7.6210938 C 10.567812 7.8850937 10.597656 8.1761406 10.597656 8.4941406 L 10.597656 11.095703 L 10.013672 11.095703 L 10.013672 8.6835938 C 10.013672 8.3535938 9.9894063 8.0756562 9.9414062 7.8476562 C 9.8994063 7.6196563 9.8247969 7.4330625 9.7167969 7.2890625 C 9.6147969 7.1450625 9.4767344 7.0424219 9.3027344 6.9824219 C 9.1287344 6.9164219 8.9085313 6.8847656 8.6445312 6.8847656 C 8.5425312 6.8847656 8.4325 6.8921562 8.3125 6.9101562 C 8.1985 6.9281563 8.0902813 6.9506094 7.9882812 6.9746094 C 7.8862813 6.9926094 7.7929844 7.0131094 7.7089844 7.0371094 C 7.6309844 7.0611094 7.5806406 7.0797969 7.5566406 7.0917969 L 7.5566406 11.095703 L 6.9707031 11.095703 L 6.9707031 4.2207031 L 7.5566406 4.1113281 z M 3.2558594 4.8046875 C 4.1378594 4.8046875 4.7945625 4.9725937 5.2265625 5.3085938 C 5.6585625 5.6445937 5.875 6.1222344 5.875 6.7402344 C 5.875 7.0942344 5.8115469 7.3964375 5.6855469 7.6484375 C 5.5595469 7.8944375 5.3804844 8.0959531 5.1464844 8.2519531 C 4.9124844 8.4019531 4.62325 8.5139375 4.28125 8.5859375 C 3.94525 8.6519375 3.5646719 8.6835937 3.1386719 8.6835938 L 2.2929688 8.6835938 L 2.2929688 11.095703 L 1.6816406 11.095703 L 1.6816406 4.9765625 C 1.8976406 4.9165625 2.1495 4.8736094 2.4375 4.8496094 C 2.7315 4.8196094 3.0038594 4.8046875 3.2558594 4.8046875 z M 3.2832031 5.3359375 C 3.0552031 5.3359375 2.8592656 5.3452813 2.6972656 5.3632812 C 2.5412656 5.3752812 2.4069687 5.3864375 2.2929688 5.3984375 L 2.2929688 8.1523438 L 3.0664062 8.1523438 C 3.3964062 8.1523438 3.6930313 8.1356094 3.9570312 8.0996094 C 4.2270312 8.0576094 4.4565781 7.9848125 4.6425781 7.8828125 C 4.8345781 7.7748125 4.9800313 7.6274062 5.0820312 7.4414062 C 5.1840312 7.2554063 5.2363281 7.0184687 5.2363281 6.7304688 C 5.2363281 6.4544688 5.1784531 6.226875 5.0644531 6.046875 C 4.9564531 5.866875 4.8090469 5.7250469 4.6230469 5.6230469 C 4.4430469 5.5150469 4.2359531 5.4404375 4.0019531 5.3984375 C 3.7679531 5.3564375 3.5292031 5.3359375 3.2832031 5.3359375 z M 13.417969 8.8417969 L 13.816406 8.8417969 L 13.816406 11.486328 L 14.318359 11.486328 L 14.318359 11.796875 L 13.816406 11.796875 L 13.816406 12.896484 L 13.441406 12.896484 L 13.441406 11.796875 L 11.605469 11.796875 L 11.605469 11.5625 C 11.675669 11.3753 11.771684 11.163688 11.896484 10.929688 C 12.025184 10.695687 12.170178 10.456638 12.330078 10.210938 C 12.489978 9.9652374 12.664362 9.7261874 12.851562 9.4921875 C 13.038763 9.2542875 13.226869 9.0367969 13.417969 8.8417969 z M 13.441406 9.2695312 C 13.304906 9.4099313 13.165791 9.5706063 13.025391 9.7539062 C 12.884991 9.9372063 12.751747 10.129225 12.623047 10.328125 C 12.498247 10.523125 12.380684 10.719069 12.271484 10.917969 C 12.162284 11.116869 12.070194 11.306928 11.996094 11.486328 L 13.441406 11.486328 L 13.441406 9.2695312 z "
     id="path4" />
</svg>

<svg xmlns="http://www.w3.org/2000/svg" viewBox="0 0 16 16">
 <path d="m 1.6 0 c -0.886 0 -1.6 0.713 -1.6 1.6 l 0 12.801 c 0 0.886 0.713 1.6 1.6 1.6 l 12.801 0 c 0.886 0 1.6 -0.713 1.6 -1.6 l 0 -12.801 c 0 -0.886 -0.713 -1.6 -1.6 -1.6 l -12.801 0 z m 5.957 4.111 l 0 2.467 c 0.192 -0.072 0.386 -0.126 0.584 -0.162 c 0.198 -0.042 0.396 -0.063 0.594 -0.063 c 0.36 0 0.66 0.05 0.9 0.152 c 0.24 0.102 0.432 0.249 0.576 0.441 c 0.144 0.186 0.243 0.41 0.297 0.674 c 0.06 0.264 0.09 0.555 0.09 0.873 l 0 2.602 l -0.584 0 l 0 -2.412 c 0 -0.33 -0.024 -0.608 -0.072 -0.836 c -0.042 -0.228 -0.117 -0.415 -0.225 -0.559 c -0.102 -0.144 -0.24 -0.247 -0.414 -0.307 c -0.174 -0.066 -0.394 -0.098 -0.658 -0.098 c -0.102 0 -0.212 0.007 -0.332 0.025 c -0.114 0.018 -0.222 0.04 -0.324 0.064 c -0.102 0.018 -0.195 0.038 -0.279 0.063 c -0.078 0.024 -0.128 0.043 -0.152 0.055 l 0 4 l -0.586 0 l 0 -6.875 l 0.586 -0.109 z m -4.301 0.693 c 0.882 0 1.539 0.168 1.971 0.504 c 0.432 0.336 0.648 0.814 0.648 1.432 c 0 0.354 -0.063 0.656 -0.189 0.908 c -0.126 0.246 -0.305 0.448 -0.539 0.604 c -0.234 0.15 -0.523 0.262 -0.865 0.334 c -0.336 0.066 -0.717 0.098 -1.143 0.098 l -0.846 0 l 0 2.412 l -0.611 0 l 0 -6.119 c 0.216 -0.06 0.468 -0.103 0.756 -0.127 c 0.294 -0.03 0.566 -0.045 0.818 -0.045 z m 0.027 0.531 c -0.228 0 -0.424 0.009 -0.586 0.027 c -0.156 0.012 -0.29 0.023 -0.404 0.035 l 0 2.754 l 0.773 0 c 0.33 0 0.627 -0.017 0.891 -0.053 c 0.27 -0.042 0.5 -0.115 0.686 -0.217 c 0.192 -0.108 0.337 -0.255 0.439 -0.441 c 0.102 -0.186 0.154 -0.423 0.154 -0.711 c 0 -0.276 -0.058 -0.504 -0.172 -0.684 c -0.108 -0.18 -0.255 -0.322 -0.441 -0.424 c -0.18 -0.108 -0.387 -0.183 -0.621 -0.225 c -0.234 -0.042 -0.473 -0.063 -0.719 -0.063 z m 10.135 3.506 l 0.398 0 l 0 2.645 l 0.502 0 l 0 0.311 l -0.502 0 l 0 1.1 l -0.375 0 l 0 -1.1 l -1.836 0 l 0 -0.234 c 0.07 -0.187 0.166 -0.399 0.291 -0.633 c 0.129 -0.234 0.274 -0.473 0.434 -0.719 c 0.16 -0.246 0.334 -0.485 0.521 -0.719 c 0.187 -0.238 0.375 -0.455 0.566 -0.65 z m 0.023 0.428 c -0.136 0.14 -0.276 0.301 -0.416 0.484 c -0.14 0.183 -0.274 0.375 -0.402 0.574 c -0.125 0.195 -0.242 0.391 -0.352 0.59 c -0.109 0.199 -0.201 0.389 -0.275 0.568 l 1.445 0 l 0 -2.217 z" style="fill:#ececec;fill-opacity:1"/>
</svg>
